plugin/icons/svg/tool panel/panel-pen-vector/icon_pen-vector-copy.svg

<?xml version="1.0" encoding="utf-8"?>
<!-- Generator: Adobe Illustrator 25.2.0, SVG Export Plug-In . SVG Version: 6.00 Build 0)  -->
<svg version="1.1" id="Layer_1" xmlns="http://www.w3.org/2000/svg" xmlns:xlink="http://www.w3.org/1999/xlink" x="0px" y="0px"
	 viewBox="0 0 18 24" style="enable-background:new 0 0 18 24;" xml:space="preserve">
<style type="text/css">
	.st0{display:none;fill:#D1D1D1;}
	.st1{fill-rule:evenodd;clip-rule:evenodd;fill:#252525;}
</style>
<rect class="st0" width="18" height="24"/>
<path class="st1" d="M9,8H6v3h3V8z M5,7v5h5V7H5z"/>
<path class="st1" d="M11,10H8v3h3V10z M7,9v5h5V9H7z"/>
<path class="st1" d="M13,12h-3v3h3V12z M9,11v5h5v-5H9z"/>
</svg>

<svg width="18" height="24" viewBox="0 0 18 24" fill="none" xmlns="http://www.w3.org/2000/svg">
<rect width="18" height="24" fill="#D1D1D1"/>
<path fill-rule="evenodd" clip-rule="evenodd" d="M9 8H6V11H9V8ZM5 7V12H10V7H5Z" fill="#252525"/>
<path fill-rule="evenodd" clip-rule="evenodd" d="M11 10H8V13H11V10ZM7 9V14H12V9H7Z" fill="#252525"/>
<path fill-rule="evenodd" clip-rule="evenodd" d="M13 12H10V15H13V12ZM9 11V16H14V11H9Z" fill="#252525"/>
</svg>
